packages/core/src/svgs/cgo.svg

<svg width="24" height="24" viewBox="0 0 24 24" fill="none" xmlns="http://www.w3.org/2000/svg">
<g clip-path="url(#clip0_31_8165)">
<path d="M0 0H24V24H0V0Z" fill="#F0F3FA"/>
<path fill-rule="evenodd" clip-rule="evenodd" d="M13.8512 10.5855L13.4098 10.1484C14.2669 9.26122 14.9826 8.42979 14.9998 7.10551C15.0212 5.39122 13.7484 3.85693 11.9998 3.85693C10.2512 3.85693 8.97836 5.38693 8.99979 7.10551C9.01693 8.42979 9.72836 9.26122 10.5855 10.1484L10.1441 10.5855C9.25693 9.72836 8.40836 8.99979 7.07122 8.99979C5.36551 8.99979 3.85693 10.2641 3.85693 11.9998C3.85693 13.7355 5.36551 14.9998 7.07122 14.9998C8.41265 14.9998 9.25693 14.2712 10.1484 13.4098L10.5941 13.8469C9.71122 14.7598 9.00836 15.5526 8.99979 16.9069C8.98693 18.6212 10.2555 20.1426 11.9998 20.1426C13.7569 20.1426 14.9955 18.5912 14.9569 16.8641C14.9312 15.5569 14.2584 14.7298 13.4141 13.8555L13.8555 13.4141C14.7769 14.3055 15.5826 15.0084 16.9584 14.9998C18.6512 14.9869 20.1426 13.7269 20.1426 11.9998C20.1426 10.2855 18.6726 9.02551 16.9884 8.99979C15.6212 8.97836 14.7598 9.71122 13.8512 10.5855ZM12.0041 4.28551C10.4612 4.28551 9.40693 5.59693 9.42836 7.10551C9.44551 8.31408 10.0798 9.06408 10.8598 9.86979L11.1555 9.57836C10.4569 8.85408 9.88265 8.18979 9.85693 7.10551C9.82693 5.80265 10.6712 4.71408 11.9998 4.71408C13.3284 4.71408 14.1726 5.80693 14.1426 7.10551C14.1169 8.18979 13.5426 8.85408 12.8441 9.57836L13.1355 9.87408C13.9155 9.06836 14.5541 8.31836 14.5712 7.10551C14.5926 5.60122 13.5426 4.28551 11.9998 4.28551H12.0041ZM12.5698 9.30408L12.2698 9.00408C12.8012 8.46408 13.2855 7.92836 13.2855 7.10979C13.2855 6.29122 12.9041 5.57122 11.9998 5.57122C11.0998 5.57122 10.7141 6.28265 10.7141 7.10551C10.7141 7.92836 11.1941 8.45979 11.7255 9.00836L11.4255 9.30408C10.8084 8.66122 10.3112 8.06979 10.2855 7.10551C10.2555 6.01693 10.8855 5.14265 11.9998 5.14265C13.1269 5.14265 13.7569 6.03836 13.7141 7.13551C13.6712 8.08693 13.1826 8.66979 12.5698 9.30408ZM12.2998 9.58265L11.9998 9.28265L11.6998 9.58265L11.9998 9.89551L12.2998 9.58265ZM12.8655 10.1526L12.5741 9.85693L12.2741 10.1698L12.5655 10.4612L12.8655 10.1526ZM12.8398 10.7355L13.1398 10.4269L13.5726 10.8555L13.2641 11.1555L12.8398 10.7355ZM13.5384 11.4341L13.8469 11.1341L14.1426 11.4255L13.8298 11.7255L13.5384 11.4341ZM14.1255 10.8641L14.4212 11.1555C15.1669 10.4355 15.8569 9.84408 16.9884 9.85693C18.2569 9.87408 19.2855 10.7141 19.2855 11.9998C19.2855 13.3026 18.2312 14.1426 16.9584 14.1426C15.7798 14.1426 15.2184 13.6155 14.4255 12.8484L14.1298 13.1398C14.9869 13.9669 15.6812 14.5798 16.9584 14.5712C18.4369 14.5584 19.7141 13.5169 19.7141 11.9998C19.7141 10.4998 18.4626 9.45408 16.9884 9.42836C15.7326 9.40693 14.9569 10.0584 14.1255 10.8641ZM14.1169 11.9869L14.4169 11.6998L14.7169 11.9998H14.7126L14.7169 12.0084L14.4169 12.3041L14.1084 12.0041L14.1212 11.9869H14.1169ZM13.5512 12.0041L13.5426 11.9998L13.5469 11.9955L13.2555 11.7041L12.9469 11.9998L13.2469 12.2912L13.5469 12.0041H13.5512ZM12.9769 12.5612L12.6726 12.2698L12.2698 12.6726L12.5612 12.9726L12.9769 12.5655V12.5612ZM12.8312 13.2512L13.2598 12.8355L13.5769 13.1441L13.1441 13.5726L12.8312 13.2512ZM12.2826 13.2426L11.9998 12.9512L11.7041 13.2555L11.9826 13.5384L12.2826 13.2426ZM12.2569 13.8126L12.5526 13.5212L12.8698 13.8512L12.5741 14.1426L12.2569 13.8126ZM13.5341 12.5612L13.8298 12.2741L14.1469 12.5741L13.8512 12.8741L13.5341 12.5612ZM14.6912 11.4298L14.9912 11.7298C15.5612 11.1812 16.1484 10.7226 16.9626 10.7141C17.7855 10.7055 18.4284 11.1255 18.4284 11.9998C18.4284 12.8826 17.7984 13.2984 16.9369 13.2855C16.0841 13.2726 15.5655 12.8226 14.9998 12.2784H14.9955L14.6955 12.5741C15.4284 13.2726 15.8955 13.7141 16.9626 13.7141C18.0255 13.7141 18.8612 13.0926 18.8612 11.9998C18.8612 10.9155 18.0341 10.2898 16.9712 10.2855C15.9684 10.2812 15.3598 10.7912 14.6998 11.4298H14.6912ZM11.4298 9.85693L11.1341 10.1484L11.4469 10.4741L11.7426 10.1826L11.4298 9.85693ZM9.87836 13.1355C9.05979 13.9241 8.30122 14.5712 7.07122 14.5712C5.55408 14.5712 4.28551 13.5341 4.28551 11.9998C4.28551 10.4655 5.55408 9.42836 7.07122 9.42836C8.29693 9.42836 9.05551 10.0712 9.86979 10.8598L9.57836 11.1512C8.84551 10.4484 8.17265 9.86551 7.07122 9.85693C5.78551 9.84408 4.71408 10.6884 4.71408 11.9998C4.71408 13.3112 5.78551 14.1555 7.07122 14.1426C8.17265 14.1298 8.84979 13.5512 9.58265 12.8398L9.87408 13.1355H9.87836ZM10.4355 13.1355L10.8641 13.5684L11.1641 13.2598L10.7441 12.8398L10.4355 13.1398V13.1355ZM10.8726 14.1212C10.0584 14.9655 9.41551 15.6512 9.43265 16.9069C9.44979 18.3384 10.3841 19.7184 12.0041 19.7184C13.5469 19.7184 14.5884 18.4326 14.5755 16.9026C14.5626 15.6898 13.9241 14.9355 13.1441 14.1298L12.8484 14.4212C13.5598 15.1626 14.1426 15.8484 14.1426 16.9712C14.1426 18.2955 13.3155 19.2898 11.9998 19.2898C10.6669 19.2898 9.83122 18.2612 9.85693 16.9112C9.87836 15.7541 10.4055 15.2055 11.1598 14.4169L10.8684 14.1255L10.8726 14.1212ZM11.4341 14.1341L11.1426 13.8426L11.4384 13.5341L11.7298 13.8298L11.4341 14.1341ZM11.4426 14.6912C10.7355 15.4198 10.3155 15.8484 10.2898 16.9069C10.2641 18.0769 10.8769 18.8569 12.0041 18.8569C13.1141 18.8569 13.7184 18.1112 13.7184 16.9626C13.7184 15.9641 13.2126 15.3555 12.5741 14.6955L12.3084 14.9955C12.8569 15.5612 13.2769 16.1098 13.2898 16.9669C13.3026 17.8241 12.8826 18.4284 12.0041 18.4284C11.1298 18.4284 10.7098 17.8241 10.7184 16.9669C10.7269 16.1784 11.0655 15.6812 11.7384 14.9869L11.4384 14.6869L11.4426 14.6912ZM12.0126 14.7084L11.7126 14.4084L12.0041 14.1084L12.3041 14.4169L12.0126 14.7084ZM10.1569 12.8655L9.86551 12.5741L10.1741 12.2741L10.4698 12.5655L10.1569 12.8655ZM9.59122 12.2998L9.89979 11.9998L9.58693 11.6998L9.30408 11.9955L9.59122 12.2955V12.2998ZM9.01265 12.2698C8.43836 12.8226 7.81265 13.2855 7.02408 13.2855C6.2355 13.2855 5.57122 12.8698 5.57122 11.9998C5.57122 11.1084 6.23551 10.7141 7.07122 10.7141C7.90693 10.7141 8.44265 11.1855 9.00408 11.7255L9.30408 11.4255C8.65265 10.7998 8.05265 10.2984 7.07122 10.2855C5.99551 10.2726 5.14265 10.8984 5.14265 11.9998C5.14265 13.1012 5.99551 13.7269 7.07122 13.7141C8.05693 13.7012 8.65693 13.1998 9.30408 12.5698L9.00408 12.2698H9.01265ZM15.2741 12.0041C15.7498 11.5369 16.3584 11.1426 16.9712 11.1426C17.5712 11.1426 17.9998 11.3398 17.9998 11.9998C17.9998 12.6598 17.5026 12.8569 16.9584 12.8569C16.4098 12.8569 15.7498 12.4669 15.2698 11.9998L15.2741 12.0041ZM10.4312 10.8555L10.8598 10.4269L11.1726 10.7441L10.7441 11.1641L10.4269 10.8555H10.4312ZM9.85693 11.4212L10.1484 11.1298L10.4655 11.4384L10.1698 11.7298L9.85693 11.4212ZM8.72979 11.9998C8.25408 11.5412 7.65836 11.0998 7.04551 11.0998C6.42836 11.0998 5.99979 11.3312 5.99979 11.9998C5.99979 12.6598 6.50979 12.8998 7.02836 12.8998C7.75693 12.8912 8.24979 12.4626 8.72979 11.9998ZM11.4384 11.0226L11.0226 11.4341L11.3226 11.7212L11.7212 11.3184L11.4384 11.0226ZM10.7441 11.7084L10.4484 12.0041L10.7441 12.2955L11.0484 11.9998L10.7484 11.7084H10.7441ZM12.0126 10.4569L11.7126 10.7526L11.9998 11.0484L12.2998 10.7398L12.0126 10.4569ZM12.2826 11.3141L12.5741 11.0141L12.9855 11.4255L12.6855 11.7169L12.2826 11.3141ZM11.4255 12.9855L11.0184 12.5698L11.3355 12.2655L11.7341 12.6641L11.4298 12.9812L11.4255 12.9855ZM12.0126 11.5926L11.6055 11.9869L12.0041 12.3855L12.4069 11.9869L12.0126 11.5926ZM12.8441 16.9926C12.8484 16.2512 12.4669 15.7498 11.9998 15.2698C11.3826 15.9041 11.1426 16.3541 11.1426 16.9926C11.1426 17.6269 11.3441 17.9998 11.9998 17.9998C12.6555 17.9998 12.8398 17.6269 12.8441 16.9926ZM12.0041 5.99979C11.3098 5.99979 11.1426 6.57408 11.1426 7.10551C11.1426 7.63693 11.5541 8.27122 11.9998 8.73408C12.4455 8.27122 12.8998 7.68836 12.8998 7.10551C12.8998 6.52265 12.6941 5.99979 11.9998 5.99979H12.0041Z" fill="url(#paint0_linear_31_8165)"/>
</g>
<defs>
<linearGradient id="paint0_linear_31_8165" x1="6.72408" y1="6.8955" x2="16.9069" y2="16.8426" gradientUnits="userSpaceOnUse">
<stop offset="0.08" stop-color="#BA9251"/>
<stop offset="0.5" stop-color="#E6B66E"/>
<stop offset="1" stop-color="#BB9352"/>
</linearGradient>
<clipPath id="clip0_31_8165">
<rect width="24" height="24" fill="white"/>
</clipPath>
</defs>
</svg>

<svg xmlns="http://www.w3.org/2000/svg" width="24" height="24" fill="none" viewBox="0 0 24 24"><g clip-path="url(#a)"><path fill="#F0F3FA" d="M0 0h24v24H0z"/><path fill="url(#b)" fill-rule="evenodd" d="m13.851 10.586-.441-.438c.857-.887 1.573-1.718 1.59-3.042.021-1.715-1.252-3.25-3-3.25-1.749 0-3.022 1.53-3 3.25.017 1.324.728 2.155 1.585 3.042l-.44.438C9.256 9.728 8.407 9 7.07 9c-1.705 0-3.214 1.264-3.214 3s1.509 3 3.214 3c1.342 0 2.186-.729 3.077-1.59l.446.437c-.883.913-1.586 1.706-1.594 3.06-.013 1.714 1.255 3.236 3 3.236 1.757 0 2.996-1.552 2.957-3.279-.026-1.307-.699-2.134-1.543-3.009l.441-.44c.922.89 1.728 1.593 3.103 1.585 1.693-.013 3.185-1.273 3.185-3 0-1.714-1.47-2.974-3.155-3-1.367-.022-2.228.711-3.137 1.585m-1.847-6.3c-1.543 0-2.597 1.31-2.576 2.82.018 1.208.652 1.958 1.432 2.764l.296-.292c-.7-.724-1.273-1.388-1.3-2.472-.03-1.303.815-2.392 2.144-2.392 1.328 0 2.173 1.093 2.143 2.392-.026 1.084-.6 1.748-1.299 2.472l.292.296c.78-.806 1.418-1.556 1.435-2.768.022-1.505-1.028-2.82-2.571-2.82zm.566 5.018-.3-.3c.531-.54 1.016-1.076 1.016-1.894 0-.819-.382-1.539-1.286-1.539-.9 0-1.286.712-1.286 1.535 0 .822.48 1.354 1.011 1.902l-.3.296c-.617-.643-1.114-1.234-1.14-2.198-.03-1.09.6-1.963 1.715-1.963 1.127 0 1.757.895 1.714 1.993-.043.95-.531 1.534-1.144 2.168m-.27.279-.3-.3-.3.3.3.313zm.566.57-.292-.296-.3.313.292.291zm-.026.582.3-.308.433.428-.309.3zm.698.7.309-.3.296.29-.313.3zm.588-.57.295.29c.746-.72 1.436-1.31 2.567-1.298 1.269.017 2.297.857 2.297 2.143 0 1.303-1.054 2.143-2.327 2.143-1.178 0-1.74-.527-2.532-1.295l-.296.292c.857.827 1.551 1.44 2.828 1.431 1.479-.013 2.756-1.054 2.756-2.571 0-1.5-1.251-2.546-2.726-2.572-1.255-.021-2.031.63-2.862 1.436m-.01 1.122.3-.287.3.3h-.003l.004.008-.3.296-.309-.3.013-.017zm-.565.017L13.543 12l.004-.005-.292-.29-.308.295.3.291.3-.287zm-.574.557-.304-.291-.403.403.291.3.416-.408zm-.146.69.429-.415.317.308-.433.429zm-.548-.008L12 12.95l-.296.304.279.283zm-.026.57.296-.292.317.33-.296.292zm1.277-1.252.296-.287.317.3-.296.3zm1.157-1.131.3.3c.57-.549 1.157-1.007 1.972-1.016.822-.008 1.465.412 1.465 1.286 0 .883-.63 1.298-1.491 1.286-.853-.013-1.372-.463-1.937-1.008h-.005l-.3.296c.733.699 1.2 1.14 2.268 1.14 1.063 0 1.898-.621 1.898-1.714 0-1.085-.827-1.71-1.89-1.714-1.003-.005-1.611.505-2.271 1.144zM11.43 9.857l-.296.291.313.326.296-.291zm-1.552 3.279c-.818.788-1.577 1.435-2.807 1.435-1.517 0-2.785-1.037-2.785-2.571S5.554 9.428 7.07 9.428c1.226 0 1.985.643 2.799 1.432l-.292.291c-.732-.703-1.405-1.285-2.507-1.294-1.285-.013-2.357.831-2.357 2.143s1.072 2.156 2.357 2.143c1.102-.013 1.779-.592 2.512-1.303l.291.296zm.557 0 .43.432.3-.308-.42-.42-.31.3zm.438.985c-.815.845-1.457 1.53-1.44 2.786.017 1.431.951 2.811 2.571 2.811 1.543 0 2.584-1.285 2.572-2.815-.013-1.213-.652-1.967-1.432-2.773l-.296.291c.712.742 1.295 1.427 1.295 2.55 0 1.325-.828 2.319-2.143 2.319-1.333 0-2.169-1.029-2.143-2.379.021-1.157.549-1.706 1.303-2.494l-.292-.291zm.561.013-.291-.291.295-.309.292.296zm.009.557c-.707.729-1.127 1.157-1.153 2.216-.026 1.17.587 1.95 1.714 1.95 1.11 0 1.714-.746 1.714-1.894 0-.999-.505-1.608-1.144-2.268l-.266.3c.549.566.969 1.115.982 1.972s-.407 1.461-1.286 1.461c-.874 0-1.294-.604-1.286-1.461.009-.789.348-1.286 1.02-1.98l-.3-.3zm.57.017-.3-.3.291-.3.3.309zm-1.856-1.842-.291-.292.308-.3.296.292zM9.59 12.3 9.9 12l-.313-.3-.283.296.287.3zm-.578-.03c-.575.553-1.2 1.016-1.989 1.016-.788 0-1.453-.416-1.453-1.286 0-.892.665-1.286 1.5-1.286.836 0 1.372.471 1.933 1.011l.3-.3c-.651-.625-1.251-1.127-2.233-1.14-1.075-.012-1.928.613-1.928 1.715 0 1.101.853 1.727 1.928 1.714.986-.013 1.586-.514 2.233-1.144l-.3-.3zm6.261-.266c.476-.467 1.084-.861 1.697-.861.6 0 1.029.197 1.029.857s-.497.857-1.042.857c-.548 0-1.208-.39-1.688-.857zm-4.843-1.149.429-.428.313.317-.429.42-.317-.309zm-.574.566.291-.291.318.308-.296.292zM8.73 12c-.476-.459-1.072-.9-1.684-.9C6.428 11.1 6 11.33 6 12c0 .66.51.9 1.028.9.729-.009 1.222-.437 1.702-.9m2.708-.977-.415.411.3.287.398-.403zm-.694.685-.296.296.296.292.304-.296-.3-.292zm1.269-1.251-.3.296.287.295.3-.308zm.27.857.291-.3.412.412-.3.29zm-.857 1.672-.408-.416.317-.305.4.4-.305.316zm.587-1.393-.408.394.4.399.402-.4zm.831 5.4c.004-.742-.377-1.243-.844-1.723-.617.634-.857 1.084-.857 1.723 0 .634.201 1.007.857 1.007s.84-.373.844-1.007M12.004 6c-.694 0-.861.574-.861 1.106 0 .53.411 1.165.857 1.628.445-.463.9-1.046.9-1.628C12.9 6.523 12.694 6 12 6z" clip-rule="evenodd"/></g><defs><linearGradient id="b" x1="6.724" x2="16.907" y1="6.896" y2="16.843" gradientUnits="userSpaceOnUse"><stop offset=".08" stop-color="#BA9251"/><stop offset=".5" stop-color="#E6B66E"/><stop offset="1" stop-color="#BB9352"/></linearGradient><clipPath id="a"><path fill="#fff" d="M0 0h24v24H0z"/></clipPath></defs></svg>
